public/assets/icons/about/curved-arrow.svg

<svg xmlns="http://www.w3.org/2000/svg"
     viewBox="415 300 60 55" preserveAspectRatio="xMidYMid meet" version="1.0">
    <defs>
        <clipPath id="9190671df1">
            <path d="M 415 304 L 473 304 L 473 351 L 415 351 Z M 415 304 " clip-rule="nonzero"/>
        </clipPath>
        <clipPath id="fa3adec4eb">
            <path d="M 414.15625 348.191406 L 466.519531 299.875 L 480.25 314.757812 L 427.890625 363.074219 Z M 414.15625 348.191406 "
                  clip-rule="nonzero"/>
        </clipPath>
        <clipPath id="d541aa0856">
            <path d="M 414.15625 348.191406 L 466.519531 299.875 L 480.25 314.757812 L 427.890625 363.074219 Z M 414.15625 348.191406 "
                  clip-rule="nonzero"/>
        </clipPath>
        <clipPath id="1a2a8a2611">
            <path d="M 428 347 L 429 347 L 429 348 L 428 348 Z M 428 347 " clip-rule="nonzero"/>
        </clipPath>
        <clipPath id="ecff54480c">
            <path d="M 414.15625 348.191406 L 466.519531 299.875 L 480.25 314.757812 L 427.890625 363.074219 Z M 414.15625 348.191406 "
                  clip-rule="nonzero"/>
        </clipPath>
        <clipPath id="0c01e84020">
            <path d="M 414.15625 348.191406 L 466.519531 299.875 L 480.25 314.757812 L 427.890625 363.074219 Z M 414.15625 348.191406 "
                  clip-rule="nonzero"/>
        </clipPath>
    </defs>
    <g clip-path="url(#9190671df1)">
        <g clip-path="url(#fa3adec4eb)">
            <g clip-path="url(#d541aa0856)">
                <path fill="#000000"
                      d="M 415.382812 347.855469 C 415.386719 347.917969 415.421875 347.960938 415.480469 347.988281 C 415.484375 348.207031 415.160156 348.332031 415.324219 348.589844 C 415.292969 349.265625 415.757812 349.5 416.292969 349.660156 C 417.792969 350.109375 419.335938 350.304688 420.894531 350.402344 C 426.464844 350.757812 431.855469 349.929688 437.15625 348.136719 C 446.40625 345.007812 453.542969 339.167969 459.164062 331.34375 C 461.765625 327.714844 463.691406 323.699219 465.425781 319.59375 C 466.445312 317.183594 467.320312 314.714844 468.25 312.269531 C 468.246094 312.167969 468.238281 312.066406 468.234375 311.964844 C 468.316406 311.882812 468.382812 311.765625 468.480469 311.730469 C 468.480469 311.730469 468.480469 311.730469 468.484375 311.730469 C 468.5625 311.707031 468.597656 311.820312 468.5625 311.90625 C 468.851562 312.890625 468.925781 313.90625 468.945312 314.921875 C 468.957031 315.621094 469.023438 316.292969 469.289062 316.941406 C 469.304688 318.441406 470.089844 319.339844 471.449219 319.496094 C 472.773438 316.8125 472.523438 314.03125 472.039062 311.226562 C 471.859375 310.179688 471.75 309.128906 471.625 308.078125 C 471.328125 305.558594 471.226562 305.941406 469.339844 305.109375 C 468.917969 304.921875 468.457031 304.835938 467.996094 304.800781 C 467.824219 304.785156 467.664062 304.789062 467.53125 304.910156 C 467.039062 304.726562 466.710938 305.019531 466.402344 305.324219 C 465.492188 306.230469 464.597656 307.144531 463.695312 308.054688 C 463.398438 308.128906 463.222656 308.351562 463.058594 308.582031 C 462.757812 308.644531 462.585938 308.871094 462.402344 309.085938 C 462.183594 309.097656 462.066406 309.277344 461.90625 309.390625 C 459.746094 310.886719 457.449219 312.117188 454.949219 312.953125 C 454.757812 313.015625 454.578125 313.09375 454.390625 313.164062 C 454.171875 313.246094 453.921875 313.339844 453.929688 313.609375 C 453.941406 313.8125 454.15625 313.992188 454.332031 314.011719 C 455.09375 314.085938 455.6875 314.617188 456.417969 314.753906 C 456.746094 314.816406 457.066406 314.738281 457.394531 314.65625 C 459.921875 314.023438 462.269531 312.960938 464.511719 311.65625 C 464.714844 311.539062 464.898438 311.390625 465.117188 311.316406 C 465.371094 311.234375 465.457031 311.433594 465.492188 311.648438 C 465.277344 311.800781 465.210938 312.007812 465.277344 312.257812 C 465.109375 312.4375 464.960938 312.625 465.042969 312.894531 C 464.980469 312.914062 464.964844 312.957031 464.992188 313.015625 C 464.828125 313.179688 464.703125 313.363281 464.761719 313.617188 C 464.675781 313.753906 464.570312 313.882812 464.507812 314.03125 C 463.820312 315.675781 463.164062 317.328125 462.457031 318.960938 C 461.820312 320.445312 461.136719 321.90625 460.46875 323.378906 C 460.246094 323.746094 460.011719 324.101562 459.804688 324.476562 C 457.769531 328.097656 455.328125 331.417969 452.394531 334.367188 C 451.347656 335.421875 450.269531 336.441406 449.203125 337.472656 C 448.890625 337.550781 448.71875 337.792969 448.546875 338.03125 C 448.242188 338.097656 448.078125 338.324219 447.90625 338.550781 C 447.617188 338.59375 447.472656 338.824219 447.296875 339.019531 C 447.101562 339.027344 446.984375 339.148438 446.898438 339.308594 C 446.828125 339.316406 446.785156 339.351562 446.765625 339.421875 C 446.550781 339.4375 446.429688 339.613281 446.269531 339.71875 C 445.472656 340.234375 444.773438 340.890625 443.910156 341.3125 C 443.902344 341.421875 443.730469 341.636719 444.066406 341.511719 C 444.292969 341.433594 444.347656 341.472656 444.339844 341.554688 C 444.335938 341.625 444.28125 341.726562 444.25 341.808594 C 441.683594 343.363281 438.957031 344.589844 436.152344 345.636719 C 435.882812 345.707031 435.609375 345.785156 435.339844 345.855469 C 433.730469 346.292969 432.121094 346.730469 430.511719 347.167969 C 430.449219 347.140625 430.390625 347.140625 430.335938 347.15625 C 430.296875 347.171875 430.261719 347.191406 430.230469 347.222656 C 430.125 347.179688 430.03125 347.199219 429.953125 347.277344 C 429.847656 347.230469 429.757812 347.25 429.679688 347.332031 C 429.574219 347.28125 429.480469 347.300781 429.398438 347.382812 C 429.296875 347.332031 429.203125 347.347656 429.121094 347.429688 C 429.019531 347.375 428.925781 347.394531 428.847656 347.476562 L 428.84375 347.476562 C 428.742188 347.421875 428.648438 347.4375 428.570312 347.519531 L 428.566406 347.523438 C 428.476562 347.53125 428.382812 347.542969 428.292969 347.5625 L 428.285156 347.5625 C 428.183594 347.507812 428.09375 347.519531 428.011719 347.601562 L 428.003906 347.605469 C 427.902344 347.550781 427.8125 347.5625 427.734375 347.644531 L 427.722656 347.644531 C 427.722656 347.644531 427.71875 347.644531 427.71875 347.644531 C 427.71875 347.644531 427.722656 347.644531 427.722656 347.644531 C 427.625 347.585938 427.53125 347.601562 427.449219 347.683594 L 427.445312 347.683594 C 427.34375 347.625 427.253906 347.640625 427.171875 347.722656 L 427.167969 347.722656 C 427.066406 347.664062 426.972656 347.675781 426.886719 347.757812 C 426.023438 347.8125 425.160156 347.867188 424.296875 347.925781 C 423.855469 348.09375 423.394531 348.039062 422.9375 348.046875 C 422.914062 348 422.902344 347.953125 422.898438 347.90625 C 422.890625 347.832031 422.90625 347.765625 422.949219 347.695312 C 422.605469 347.664062 422.265625 347.605469 421.925781 347.734375 C 421.828125 347.78125 421.726562 347.816406 421.613281 347.804688 C 421.71875 347.78125 421.820312 347.761719 421.925781 347.734375 C 421.820312 347.703125 421.714844 347.683594 421.636719 347.78125 C 421.496094 347.679688 421.347656 347.675781 421.1875 347.734375 C 421.101562 347.667969 421.011719 347.65625 420.921875 347.734375 C 420.8125 347.6875 420.710938 347.671875 420.613281 347.746094 C 420.5625 347.714844 420.515625 347.703125 420.457031 347.726562 C 420.125 347.636719 419.792969 347.617188 419.457031 347.683594 C 419.222656 347.632812 418.988281 347.574219 418.746094 347.648438 C 418.605469 347.5625 418.457031 347.585938 418.304688 347.601562 C 417.375 347.398438 416.414062 347.371094 415.480469 346.972656 C 415.496094 347.332031 415.183594 347.554688 415.382812 347.855469 Z M 465.148438 313.132812 C 465.148438 313.136719 465.148438 313.136719 465.144531 313.136719 C 465.148438 313.140625 465.148438 313.136719 465.148438 313.136719 C 465.148438 313.140625 465.144531 313.140625 465.144531 313.140625 C 465.144531 313.140625 465.144531 313.136719 465.144531 313.136719 C 465.144531 313.136719 465.140625 313.132812 465.136719 313.132812 C 465.144531 313.132812 465.144531 313.132812 465.148438 313.132812 Z M 427.574219 348.21875 C 427.597656 348.222656 427.617188 348.222656 427.640625 348.222656 C 427.636719 348.222656 427.628906 348.226562 427.625 348.226562 C 427.605469 348.230469 427.585938 348.234375 427.566406 348.234375 C 427.566406 348.234375 427.570312 348.226562 427.574219 348.21875 Z M 430.5 347.179688 C 430.503906 347.179688 430.5 347.183594 430.503906 347.183594 C 430.503906 347.191406 430.507812 347.199219 430.503906 347.207031 L 430.503906 347.234375 L 430.5 347.183594 C 430.5 347.179688 430.496094 347.183594 430.496094 347.179688 C 430.496094 347.183594 430.5 347.179688 430.5 347.179688 Z M 427.527344 348.3125 C 427.539062 348.289062 427.550781 348.261719 427.5625 348.238281 C 427.582031 348.238281 427.601562 348.234375 427.621094 348.230469 C 427.582031 348.242188 427.546875 348.269531 427.527344 348.3125 Z M 427.746094 348.21875 C 427.769531 348.214844 427.792969 348.210938 427.8125 348.210938 C 427.8125 348.210938 427.816406 348.210938 427.816406 348.214844 C 427.792969 348.214844 427.769531 348.214844 427.746094 348.21875 Z M 416.921875 348.785156 C 416.921875 348.789062 416.917969 348.789062 416.914062 348.789062 C 416.914062 348.789062 416.910156 348.789062 416.910156 348.789062 C 416.910156 348.789062 416.90625 348.789062 416.90625 348.785156 C 416.910156 348.785156 416.914062 348.785156 416.921875 348.785156 Z M 417.335938 348.875 C 417.339844 348.878906 417.34375 348.882812 417.351562 348.878906 C 417.347656 348.875 417.339844 348.875 417.335938 348.875 Z M 421.476562 347.90625 C 421.46875 347.925781 421.460938 347.945312 421.457031 347.96875 C 421.445312 347.960938 421.4375 347.953125 421.425781 347.945312 C 421.441406 347.933594 421.457031 347.921875 421.476562 347.90625 Z M 420.734375 347.800781 C 420.699219 347.804688 420.664062 347.796875 420.625 347.773438 C 420.625 347.773438 420.625 347.773438 420.628906 347.773438 C 420.664062 347.789062 420.699219 347.800781 420.734375 347.800781 Z M 420.734375 347.800781 "
                      fill-opacity="1" fill-rule="nonzero"/>
            </g>
        </g>
    </g>
    <g clip-path="url(#1a2a8a2611)">
        <g clip-path="url(#ecff54480c)">
            <g clip-path="url(#0c01e84020)">
                <path fill="#000000"
                      d="M 428.28125 347.570312 C 428.371094 347.554688 428.460938 347.539062 428.550781 347.527344 C 428.449219 347.472656 428.359375 347.488281 428.28125 347.570312 Z M 428.28125 347.570312 "
                      fill-opacity="1" fill-rule="nonzero"/>
            </g>
        </g>
    </g>
</svg>

<svg xmlns="http://www.w3.org/2000/svg" xmlns:xlink="http://www.w3.org/1999/xlink" version="1.0" viewBox="415 300 60 55">
    <defs>
        <path id="reuse-0" d="m414.16 348.2 52.36-48.32 13.73 14.88-52.36 48.31Zm0 0"/>
    </defs>
    <defs>
        <clipPath id="a">
            <path d="M415 304h58v47h-58Zm0 0"/>
        </clipPath>
        <clipPath id="b">
            <use xlink:href="#reuse-0"/>
        </clipPath>
        <clipPath id="c">
            <use xlink:href="#reuse-0"/>
        </clipPath>
        <clipPath id="d">
            <path d="M428 347h1v1h-1Zm0 0"/>
        </clipPath>
        <clipPath id="e">
            <use xlink:href="#reuse-0"/>
        </clipPath>
        <clipPath id="f">
            <use xlink:href="#reuse-0"/>
        </clipPath>
    </defs>
    <g clip-path="url(#a)">
        <g clip-path="url(#b)">
            <g clip-path="url(#c)">
                <path d="M415.38 347.86c0 .06.04.1.1.13 0 .22-.32.34-.16.6-.03.68.44.91.97 1.07 1.5.45 3.05.64 4.6.74 5.57.36 10.97-.47 16.27-2.26 9.25-3.13 16.38-8.97 22-16.8 2.6-3.63 4.53-7.64 6.27-11.75 1.02-2.4 1.89-4.88 2.82-7.32l-.02-.3c.09-.09.15-.2.25-.24.08-.02.12.09.08.18.3.98.37 2 .39 3.01 0 .7.07 1.37.34 2.02.01 1.5.8 2.4 2.16 2.56 1.32-2.69 1.07-5.47.59-8.27-.18-1.05-.29-2.1-.42-3.15-.3-2.52-.4-2.14-2.28-2.97a4.06 4.06 0 0 0-1.34-.3c-.18-.02-.34-.02-.47.1-.5-.18-.82.11-1.13.41l-2.7 2.73c-.3.08-.48.3-.64.53-.3.06-.47.3-.66.5-.22.02-.33.2-.5.31a27.57 27.57 0 0 1-6.95 3.56l-.56.21c-.22.09-.47.18-.46.45.01.2.23.38.4.4.76.08 1.36.6 2.09.74.33.07.65-.01.97-.1 2.53-.63 4.88-1.69 7.12-3 .2-.11.39-.26.6-.33.26-.09.35.11.38.33-.21.15-.28.36-.21.6-.17.19-.32.38-.24.64-.06.02-.08.07-.05.13-.16.16-.29.34-.23.6-.08.13-.19.26-.25.41-.69 1.65-1.35 3.3-2.05 4.93-.64 1.49-1.32 2.95-2 4.42-.21.37-.45.72-.66 1.1a45.6 45.6 0 0 1-7.4 9.89c-1.05 1.05-2.13 2.07-3.2 3.1-.3.08-.48.32-.65.56-.3.07-.47.3-.64.52-.3.04-.44.27-.61.47-.2 0-.32.13-.4.29-.07 0-.11.04-.13.11-.22.02-.34.2-.5.3-.8.51-1.5 1.17-2.36 1.6 0 .1-.18.32.16.2.22-.09.28-.05.27.03 0 .07-.06.18-.09.26a47.78 47.78 0 0 1-8.1 3.83l-.81.22-4.83 1.3a.25.25 0 0 0-.17 0 .3.3 0 0 0-.11.06.24.24 0 0 0-.28.06c-.1-.05-.2-.03-.27.05-.1-.05-.2-.03-.28.05-.1-.05-.2-.03-.28.05-.1-.06-.2-.04-.27.05-.1-.06-.2-.04-.28.04l-.28.04c-.1-.05-.2-.04-.28.04-.1-.05-.2-.04-.28.04h-.01c-.1-.05-.19-.04-.27.04-.1-.06-.2-.04-.28.04-.1-.06-.2-.04-.28.04-.87.05-1.73.1-2.6.17-.43.16-.9.1-1.35.12a.38.38 0 0 1-.04-.14c0-.08 0-.14.05-.21-.34-.04-.68-.1-1.02.03-.1.05-.2.09-.32.07l.32-.07c-.11-.03-.22-.05-.3.05-.13-.1-.28-.1-.44-.05-.09-.06-.18-.07-.27 0-.1-.04-.2-.06-.3.02-.06-.04-.1-.05-.16-.02-.33-.1-.67-.11-1-.05-.24-.05-.47-.1-.71-.03-.14-.09-.3-.06-.45-.05-.93-.2-1.89-.23-2.82-.63.02.36-.3.58-.1.89Zm49.77-34.73c0 .01 0 0 0 0v.01h-.01Zm-37.58 35.09h.07-.01a.3.3 0 0 1-.06.01v-.01Zm2.93-1.04v.05-.05Zm-2.97 1.13.03-.07.06-.01a.15.15 0 0 0-.1.08Zm.22-.1h.06-.06Zm-10.83.58h-.01.01Zm.42.08h.01-.01Zm4.14-.96a.3.3 0 0 0-.02.06l-.03-.02.05-.04Zm-.75-.1c-.03 0-.07-.01-.1-.04.03.02.07.03.1.03Zm0 0"/>
            </g>
        </g>
    </g>
    <g clip-path="url(#d)">
        <g clip-path="url(#e)">
            <g clip-path="url(#f)">
                <path d="m428.28 347.57.27-.04c-.1-.06-.2-.04-.27.04Zm0 0"/>
            </g>
        </g>
    </g>
</svg>
